src/assets/icons/fa/wpbeginner.svg

<?xml version="1.0" encoding="utf-8"?>
<svg width="1792" height="1792" viewBox="0 0 1792 1792" xmlns="http://www.w3.org/2000/svg"><path d="M384 832h160v-224h-160v224zm837 332v-92q-104 36-243 38-135 1-259.5-46.5t-220.5-122.5l1 96q88 80 212 128.5t272 47.5q129 0 238-49zm-581-332h640v-224h-640v224zm1152-32q0 187-99 352 89 102 89 229 0 157-129.5 268t-313.5 111q-122 0-225-52.5t-161-140.5q-19 1-57 1t-57-1q-58 88-161 140.5t-225 52.5q-184 0-313.5-111t-129.5-268q0-127 89-229-99-165-99-352 0-209 120-385.5t326.5-279.5 449.5-103 449.5 103 326.5 279.5 120 385.5z"/></svg>

<svg width="1792" height="1792" xmlns="http://www.w3.org/2000/svg"><path d="M384 832h160V608H384v224zm837 332v-92q-104 36-243 38-135 1-259.5-46.5T498 941l1 96q88 80 212 128.5t272 47.5q129 0 238-49zM640 832h640V608H640v224zm1152-32q0 187-99 352 89 102 89 229 0 157-129.5 268T1339 1760q-122 0-225-52.5T953 1567q-19 1-57 1t-57-1q-58 88-161 140.5T453 1760q-184 0-313.5-111T10 1381q0-127 89-229Q0 987 0 800q0-209 120-385.5T446.5 135 896 32t449.5 103T1672 414.5 1792 800z"/></svg>
